usr/share/icons/biglinux-icons-material-dark/symbolic/status/org.gnome.Shell.Extensions.GSConnect-symbolic.svg

<svg width="16" height="16" version="1.1" xmlns="http://www.w3.org/2000/svg">
 <path d="m4 1h10c0.5523 0 1 0.44772 1 1v7c0 0.5523-0.4477 1-1 1h-7v1h3v2h-3v1h5.5c0.2761 0 0.5-0.2239 0.5-0.5s-0.2239-0.5-0.5-0.5h-1.5v-2h3c1.1046 0 2-0.8954 2-2v-7c0-1.1046-0.8954-2-2-2h-10c-1.1046 0-2 0.89543-2 2v3h1v-3c0-0.55228 0.44772-1 1-1zm-1.5 12c-0.27614 0-0.5 0.2239-0.5 0.5s0.22386 0.5 0.5 0.5h1c0.27614 0 0.5-0.2239 0.5-0.5s-0.22386-0.5-0.5-0.5zm-2.5-5.5c0-0.82843 0.67157-1.5 1.5-1.5h3c0.82843 0 1.5 0.67157 1.5 1.5v7c0 0.8284-0.67157 1.5-1.5 1.5h-3c-0.82843 0-1.5-0.6716-1.5-1.5zm1.5-0.5c-0.27614 0-0.5 0.22386-0.5 0.5v7c0 0.2761 0.22386 0.5 0.5 0.5h3c0.27614 0 0.5-0.2239 0.5-0.5v-7c0-0.27614-0.22386-0.5-0.5-0.5z" fill="#dedede"/>
</svg>

<svg xmlns="http://www.w3.org/2000/svg" width="16" height="16">
<path fill="#363636" d="M4 1h10a1 1 0 0 1 1 1v7a1 1 0 0 1-1 1H7v1h3v2H7v1h5.5a.5.5 0 0 0 0-1H11v-2h3a2 2 0 0 0 2-2V2a2 2 0 0 0-2-2H4a2 2 0 0 0-2 2v3h1V2a1 1 0 0 1 1-1M2.5 13a.5.5 0 0 0 0 1h1a.5.5 0 0 0 0-1zM0 7.5A1.5 1.5 0 0 1 1.5 6h3A1.5 1.5 0 0 1 6 7.5v7A1.5 1.5 0 0 1 4.5 16h-3A1.5 1.5 0 0 1 0 14.5zM1.5 7a.5.5 0 0 0-.5.5v7a.5.5 0 0 0 .5.5h3a.5.5 0 0 0 .5-.5v-7a.5.5 0 0 0-.5-.5z"/>
</svg>
